user-logos/10x-genomics.svg

<svg width="48" height="48" viewBox="0 0 48 48" xmlns="http://www.w3.org/2000/svg"><title>Menu Icon</title><g fill="none" fill-rule="evenodd"><path d="M20.165 12.626c-3.3 0-5.211 1.199-5.211 7.326 0 6.128 1.91 7.327 5.211 7.327 3.27 0 5.163-1.199 5.163-7.327 0-6.127-1.893-7.326-5.163-7.326zm0 16.544c-4.979 0-7.103-2.756-7.103-9.218 0-6.46 2.124-9.218 7.103-9.218 6.216 0 7.054 4.66 7.054 9.218 0 3.259-.505 5.46-1.59 6.93-1.137 1.54-2.924 2.288-5.464 2.288zM9.214 11.347H7.433L3.438 14.34l1.304 1.432c.266-.187 2.528-1.912 2.528-1.912v15.026h1.944v-17.54z" fill="#143057"/><path d="M36.05 20.162c-.283.415.26 1.317.26 1.317s1.035.18 1.318-.235l3.857-5.654h-2.318l-3.117 4.572" fill="#EFBC1B"/><path d="M33.513 21.244c.283.416 1.317.235 1.317.235s.544-.902.26-1.317l-3.116-4.572h-2.318l3.857 5.654" fill="#71BE4B"/><path d="M41.849 28.886l-4.221-6.188c-.283-.415-1.318-.234-1.318-.234s-.543.901-.26 1.316l3.488 5.116h2.276l.035-.01z" fill="#00A1DF"/><path d="M35.09 23.78c.284-.415-.26-1.316-.26-1.316s-1.034-.181-1.317.234l-4.221 6.188.035.01h2.276l3.488-5.116" fill="#E84B50"/><path d="M4.063 35.45v-1.836c0-1.204.914-1.95 2.095-1.95 1.067 0 1.988.563 1.988 1.637v.23h-.708v-.146c0-.723-.587-1.059-1.288-1.059-.7 0-1.34.427-1.34 1.265v1.798c0 .769.594 1.233 1.379 1.233.693 0 1.264-.373 1.264-1.096v-.45H5.991v-.67h2.17v1.204c0 1.089-.883 1.683-1.972 1.683-1.166 0-2.126-.648-2.126-1.844" fill="#143057"/><path fill="#143057" d="M9.4327748 31.7553071L13.0129323 31.7553071 13.0129323 32.4178583 10.1792315 32.4178583 10.1792315 34.0708346 12.6015307 34.0708346 12.6015307 34.7260157 10.1792315 34.7260157 10.1792315 36.5311181 13.0357984 36.5311181 13.0357984 37.1938583 9.4327748 37.1938583z"/><path fill="#143057" d="M14.2538457 31.7553071L14.9927433 31.7553071 17.643515 35.9065512 17.658822 35.9065512 17.658822 31.7553071 18.3746646 31.7553071 18.3746646 37.1938583 17.643515 37.1938583 14.9774362 33.0044409 14.9623181 33.0044409 14.9623181 37.1938583 14.2538457 37.1938583z"/><path d="M23.097 35.358v-1.813c0-.77-.594-1.218-1.394-1.218-.7 0-1.34.434-1.34 1.287v1.775c0 .769.593 1.234 1.378 1.234.693 0 1.356-.412 1.356-1.265m-3.481.092v-1.813c0-1.25.998-1.973 2.102-1.973 1.166 0 2.118.716 2.118 1.912v1.736c0 1.25-.99 1.98-2.095 1.98-1.15 0-2.125-.647-2.125-1.842" fill="#143057"/><path fill="#143057" d="M25.0841953 31.7628661L25.998274 31.7628661 27.5979591 35.1143622 27.6132661 35.1143622 29.174589 31.7628661 30.0964157 31.7628661 30.0964157 37.1938583 29.3726362 37.1938583 29.3726362 33.0805984 29.3573291 33.0805984 27.8872819 36.1503307 27.2931402 36.1503307 25.8230929 33.0959055 25.8002268 33.0959055 25.8002268 37.1938583 25.0841953 37.1938583z"/><path fill="#143057" d="M31.3897323 37.1937638L32.143748 37.1937638 32.143748 31.7627717 31.3897323 31.7627717z"/><path d="M33.371 35.45v-1.836c0-1.204.914-1.95 2.102-1.95 1.067 0 1.98.61 1.98 1.683v.236h-.707v-.152c0-.724-.587-1.105-1.288-1.105-.7 0-1.34.427-1.34 1.265v1.798c0 .769.594 1.233 1.378 1.233.693 0 1.25-.38 1.25-1.104v-.099h.708v.19c0 1.09-.891 1.684-1.958 1.684-1.165 0-2.125-.648-2.125-1.844m4.912.519l.679-.26c.213.587.746.922 1.44.922.662 0 1.218-.305 1.218-.891 0-.518-.35-.739-.808-.876l-.99-.266c-.746-.206-1.234-.58-1.234-1.417 0-.937.785-1.516 1.79-1.516.861 0 1.607.335 1.874 1.074l-.647.259c-.229-.465-.655-.7-1.242-.7-.518 0-1.044.25-1.044.822 0 .411.297.67.869.83l.998.274c.64.168 1.165.556 1.165 1.455 0 .952-.808 1.607-1.98 1.607-.99 0-1.828-.442-2.088-1.317m5.692-3.468c.11 0 .165-.047.165-.14 0-.092-.055-.137-.165-.137h-.212c-.012 0-.019.006-.019.018v.24c0 .013.007.02.02.02h.211zm-.377.561c-.022 0-.033-.011-.033-.033v-.932c0-.022.011-.033.033-.033h.377c.11 0 .195.026.255.077.059.052.09.125.09.22a.286.286 0 0 1-.053.173.295.295 0 0 1-.146.104l.203.391c.009.022.003.033-.02.033h-.131c-.019 0-.033-.011-.043-.033l-.188-.367h-.179c-.012 0-.019.006-.019.018v.35c0 .021-.01.032-.033.032h-.113zm.316.254a.75.75 0 0 0 .294-.056.701.701 0 0 0 .233-.158.767.767 0 0 0 .212-.534.767.767 0 0 0-.056-.297.714.714 0 0 0-.683-.448.75.75 0 0 0-.528.212.714.714 0 0 0-.155.236.767.767 0 0 0-.057.297.767.767 0 0 0 .212.534c.066.068.144.12.233.158a.75.75 0 0 0 .295.056zm0 .156a.884.884 0 0 1-.9-.904.914.914 0 0 1 .26-.641.88.88 0 0 1 .64-.26c.129 0 .248.024.358.07a.851.851 0 0 1 .473.477c.046.11.068.228.068.354a.924.924 0 0 1-.256.645.855.855 0 0 1-.285.19.926.926 0 0 1-.358.069z" fill="#143057"/></g></svg>

<?xml version="1.0" encoding="UTF-8" standalone="no"?>
<svg width="48px" height="48px" viewBox="0 0 48 48" version="1.1" xmlns="http://www.w3.org/2000/svg" xmlns:xlink="http://www.w3.org/1999/xlink">
    <!-- Generator: Sketch 41.1 (35376) - http://www.bohemiancoding.com/sketch -->
    <title>Menu Icon</title>
    <desc>Created with Sketch.</desc>
    <defs></defs>
    <g id="Page-1" stroke="none" stroke-width="1" fill="none" fill-rule="evenodd">
        <g id="Menu-Icon">
            <path d="M20.1653102,12.6257953 C16.8644598,12.6257953 14.9535307,13.8246614 14.9535307,19.9524094 C14.9535307,26.0799685 16.8644598,27.2788346 20.1653102,27.2788346 C23.4349795,27.2788346 25.3279559,26.0799685 25.3279559,19.9524094 C25.3279559,13.8246614 23.4349795,12.6257953 20.1653102,12.6257953 Z M20.1653102,29.1702992 C15.1863496,29.1702992 13.0620661,26.4135118 13.0620661,19.9524094 C13.0620661,13.4911181 15.1863496,10.7343307 20.1653102,10.7343307 C26.3813102,10.7343307 27.2194205,15.3941102 27.2194205,19.9524094 C27.2194205,23.2107402 26.7139087,25.4128819 25.6286173,26.8825512 C24.4919244,28.4219528 22.7049638,29.1702992 20.1653102,29.1702992 Z" id="Fill-1" fill="#143057"></path>
            <path d="M9.21378898,11.3468409 L7.43816693,11.3468409 L7.43268661,11.3468409 L3.43848189,14.3413606 L4.74166299,15.7730457 C5.00755276,15.586148 7.27035591,13.8609827 7.27035591,13.8609827 L7.27035591,28.8866835 L9.21378898,28.8866835 L9.21378898,11.3468409 Z" id="Fill-3" fill="#143057"></path>
            <path d="M36.0497764,20.1618709 C35.7666898,20.577052 36.3099969,21.4786583 36.3099969,21.4786583 C36.3099969,21.4786583 37.3446425,21.6595087 37.6277291,21.2443276 C37.7276976,21.0978709 40.4797606,17.0634142 41.484926,15.5897764 L39.1669417,15.5897764 C38.0986583,17.1563906 36.2499024,19.8683906 36.0497764,20.1618709" id="Fill-5" fill="#EFBC1B"></path>
            <path d="M33.5127118,21.2443276 C33.7957984,21.6595087 34.8304441,21.4786583 34.8304441,21.4786583 C34.8304441,21.4786583 35.3739402,20.577052 35.0908535,20.1618709 C34.8907276,19.8683906 33.0417827,17.1563906 31.9736882,15.5897764 L29.655515,15.5897764 C30.6608693,17.0634142 33.4127433,21.0978709 33.5127118,21.2443276" id="Fill-7" fill="#71BE4B"></path>
            <path d="M41.8488189,28.8859276 C41.8488189,28.8859276 37.7501102,22.8774236 37.6278425,22.6978961 C37.3447559,22.282715 36.3101102,22.4637543 36.3101102,22.4637543 C36.3101102,22.4637543 35.7666142,23.3651717 36.0497008,23.7803528 C36.2759055,24.1120063 38.6065512,27.530589 39.5376378,28.8963213 L41.8140472,28.8963213 L41.8488189,28.8859276 Z" id="Fill-9" fill="#00A1DF"></path>
            <path d="M35.090778,23.7803906 C35.3738646,23.3652094 34.8303685,22.4636031 34.8303685,22.4636031 C34.8303685,22.4636031 33.7957228,22.2827528 33.5126362,22.6979339 C33.3903685,22.8774614 29.2916598,28.8859654 29.2916598,28.8859654 L29.3266205,28.8963591 L31.6030299,28.8963591 C32.5341165,27.5306268 34.8647622,24.1118551 35.090778,23.7803906" id="Fill-11" fill="#E84B50"></path>
            <path d="M4.06337008,35.4494929 L4.06337008,33.6137764 C4.06337008,32.4103748 4.97744882,31.6637291 6.15817323,31.6637291 C7.22456693,31.6637291 8.14601575,32.2274457 8.14601575,33.3013984 L8.14601575,33.5300598 L7.43773228,33.5300598 L7.43773228,33.3853039 C7.43773228,32.6615244 6.85133858,32.3264693 6.1504252,32.3264693 C5.44970079,32.3264693 4.80982677,32.753178 4.80982677,33.5909102 L4.80982677,35.3886425 C4.80982677,36.1579654 5.4039685,36.6224693 6.18859843,36.6224693 C6.88176378,36.6224693 7.45303937,36.2492409 7.45303937,35.5258394 L7.45303937,35.0762646 L5.99055118,35.0762646 L5.99055118,34.4059654 L8.16132283,34.4059654 L8.16132283,35.6095559 C8.16132283,36.6988157 7.27785827,37.2927685 6.18859843,37.2927685 C5.02299213,37.2927685 4.06337008,36.6453354 4.06337008,35.4494929" id="Fill-13" fill="#143057"></path>
            <polygon id="Fill-15" fill="#143057" points="9.4327748 31.7553071 13.0129323 31.7553071 13.0129323 32.4178583 10.1792315 32.4178583 10.1792315 34.0708346 12.6015307 34.0708346 12.6015307 34.7260157 10.1792315 34.7260157 10.1792315 36.5311181 13.0357984 36.5311181 13.0357984 37.1938583 9.4327748 37.1938583"></polygon>
            <polygon id="Fill-17" fill="#143057" points="14.2538457 31.7553071 14.9927433 31.7553071 17.643515 35.9065512 17.658822 35.9065512 17.658822 31.7553071 18.3746646 31.7553071 18.3746646 37.1938583 17.643515 37.1938583 14.9774362 33.0044409 14.9623181 33.0044409 14.9623181 37.1938583 14.2538457 37.1938583"></polygon>
            <path d="M23.0966929,35.3581039 L23.0966929,33.5452535 C23.0966929,32.7759307 22.5027402,32.3265449 21.7028031,32.3265449 C21.0020787,32.3265449 20.3622047,32.7606236 20.3622047,33.613663 L20.3622047,35.3887181 C20.3622047,36.157852 20.9563465,36.6225449 21.7407874,36.6225449 C22.4339528,36.6225449 23.0966929,36.2113323 23.0966929,35.3581039 M19.615748,35.4495685 L19.615748,33.6365291 C19.615748,32.3873953 20.6135433,31.6638047 21.7181102,31.6638047 C22.8835276,31.6638047 23.8355906,32.3798362 23.8355906,33.5756787 L23.8355906,35.3123717 C23.8355906,36.5615055 22.8453543,37.2928441 21.7407874,37.2928441 C20.5906772,37.2928441 19.615748,36.645411 19.615748,35.4495685" id="Fill-19" fill="#143057"></path>
            <polygon id="Fill-21" fill="#143057" points="25.0841953 31.7628661 25.998274 31.7628661 27.5979591 35.1143622 27.6132661 35.1143622 29.174589 31.7628661 30.0964157 31.7628661 30.0964157 37.1938583 29.3726362 37.1938583 29.3726362 33.0805984 29.3573291 33.0805984 27.8872819 36.1503307 27.2931402 36.1503307 25.8230929 33.0959055 25.8002268 33.0959055 25.8002268 37.1938583 25.0841953 37.1938583"></polygon>
            <polygon id="Fill-23" fill="#143057" points="31.3897323 37.1937638 32.143748 37.1937638 32.143748 31.7627717 31.3897323 31.7627717"></polygon>
            <path d="M33.3709984,35.4494929 L33.3709984,33.6137764 C33.3709984,32.4103748 34.2850772,31.6637291 35.4733606,31.6637291 C36.5397543,31.6637291 37.4538331,32.273178 37.4538331,33.3471307 L37.4538331,33.5833512 L36.7455496,33.5833512 L36.7455496,33.4310362 C36.7455496,32.7074457 36.1589669,32.3264693 35.4580535,32.3264693 C34.7573291,32.3264693 34.1174551,32.753178 34.1174551,33.5909102 L34.1174551,35.3886425 C34.1174551,36.1579654 34.7115969,36.6224693 35.4962268,36.6224693 C36.1893921,36.6224693 36.7455496,36.2416819 36.7455496,35.5180913 L36.7455496,35.4190677 L37.4538331,35.4190677 L37.4538331,35.6095559 C37.4538331,36.6988157 36.5626205,37.2927685 35.4962268,37.2927685 C34.3308094,37.2927685 33.3709984,36.6453354 33.3709984,35.4494929" id="Fill-25" fill="#143057"></path>
            <path d="M38.2834583,35.9675528 L38.9615055,35.7084661 C39.1748598,36.2950488 39.7079622,36.6302929 40.4011276,36.6302929 C41.0638677,36.6302929 41.6198362,36.325474 41.6198362,35.7388913 C41.6198362,35.2210961 41.269474,35.0001827 40.8123402,34.8629858 L39.8221039,34.5965291 C39.0756472,34.3907339 38.5880882,34.0175055 38.5880882,33.1795843 C38.5880882,32.2428283 39.3727181,31.6638047 40.3782614,31.6638047 C41.2390488,31.6638047 41.9853165,31.9990488 42.2519622,32.7379465 L41.6045291,32.9968441 C41.3760567,32.5321512 40.949537,32.2961197 40.3629543,32.2961197 C39.8449701,32.2961197 39.3194268,32.5474583 39.3194268,33.1187339 C39.3194268,33.5301354 39.6164976,33.7890331 40.1877732,33.9490961 L41.1855685,34.2231118 C41.8254425,34.3907339 42.3509858,34.7792693 42.3509858,35.6780409 C42.3509858,36.6302929 41.5434898,37.285285 40.3705134,37.285285 C39.3804661,37.285285 38.5425449,36.8434583 38.2834583,35.9675528" id="Fill-26" fill="#143057"></path>
            <path d="M43.9751433,32.5004787 C44.0849386,32.5004787 44.1399307,32.4534236 44.1399307,32.3593134 C44.1399307,32.2682268 44.0849386,32.2226835 43.9751433,32.2226835 L43.7631118,32.2226835 C43.7506394,32.2226835 43.7444031,32.2289197 43.7444031,32.2413921 L43.7444031,32.4817701 C43.7444031,32.4942425 43.7506394,32.5004787 43.7631118,32.5004787 L43.9751433,32.5004787 Z M43.5983244,33.0609827 C43.5762142,33.0609827 43.5654425,33.050022 43.5654425,33.0281008 L43.5654425,32.0955024 C43.5654425,32.0735811 43.5762142,32.0626205 43.5983244,32.0626205 L43.9751433,32.0626205 C44.0849386,32.0626205 44.169789,32.0885102 44.2295055,32.1401008 C44.2890331,32.1920693 44.3190803,32.2650142 44.3190803,32.3593134 C44.3190803,32.4282898 44.3016945,32.4864945 44.2671118,32.5333606 C44.2327181,32.5806047 44.1839622,32.6151874 44.121222,32.6371087 L44.3238047,33.0281008 C44.3328756,33.050022 44.3266394,33.0609827 44.3047181,33.0609827 L44.1728126,33.0609827 C44.1541039,33.0609827 44.1399307,33.050022 44.1304819,33.0281008 L43.9422614,32.6605417 L43.7631118,32.6605417 C43.7506394,32.6605417 43.7444031,32.6669669 43.7444031,32.6794394 L43.7444031,33.0281008 C43.7444031,33.050022 43.7334425,33.0609827 43.7113323,33.0609827 L43.5983244,33.0609827 Z M43.913726,33.3153449 C44.0206866,33.3153449 44.1187654,33.2964472 44.2083402,33.258652 C44.297726,33.2210457 44.3753953,33.1685102 44.441348,33.1008567 C44.5073008,33.0335811 44.5590803,32.9544 44.5966866,32.8633134 C44.6344819,32.7722268 44.6533795,32.6732031 44.6533795,32.5666205 C44.6533795,32.4596598 44.6344819,32.3608252 44.5966866,32.2697386 C44.5590803,32.178652 44.5073008,32.1002268 44.441348,32.034274 C44.3753953,31.9683213 44.297726,31.9165417 44.2083402,31.8789354 C44.1187654,31.8411402 44.0206866,31.8222425 43.913726,31.8222425 C43.8071433,31.8222425 43.7090646,31.8411402 43.6194898,31.8789354 C43.5301039,31.9165417 43.4524346,31.9683213 43.3864819,32.034274 C43.3205291,32.1002268 43.2687496,32.178652 43.2311433,32.2697386 C43.193348,32.3608252 43.1744504,32.4596598 43.1744504,32.5666205 C43.1744504,32.6732031 43.193348,32.7722268 43.2311433,32.8633134 C43.2687496,32.9544 43.3205291,33.0335811 43.3864819,33.1008567 C43.4524346,33.1685102 43.5301039,33.2210457 43.6194898,33.258652 C43.7090646,33.2964472 43.8071433,33.3153449 43.913726,33.3153449 L43.913726,33.3153449 Z M43.913726,33.4706835 C43.7850331,33.4706835 43.6667339,33.4480063 43.5584504,33.402463 C43.449978,33.3567307 43.3551118,33.2932346 43.273474,33.2115969 C43.1918362,33.1299591 43.1283402,33.034337 43.0827969,32.9243528 C43.0372535,32.8145575 43.0143874,32.6953134 43.0143874,32.5666205 C43.0143874,32.4409512 43.0372535,32.3232189 43.0827969,32.2132346 C43.1283402,32.1034394 43.1918362,32.0076283 43.273474,31.9259906 C43.3551118,31.8443528 43.449978,31.7808567 43.5584504,31.7353134 C43.6667339,31.6897701 43.7850331,31.6669039 43.913726,31.6669039 C44.0426079,31.6669039 44.161852,31.6897701 44.2718362,31.7353134 C44.3816315,31.7808567 44.4766866,31.8443528 44.5568126,31.9259906 C44.6369386,32.0076283 44.6996787,32.1034394 44.745222,32.2132346 C44.7907654,32.3232189 44.8134425,32.4409512 44.8134425,32.5666205 C44.8134425,32.6953134 44.7907654,32.8145575 44.745222,32.9243528 C44.6996787,33.034337 44.6369386,33.1299591 44.5568126,33.2115969 C44.4766866,33.2932346 44.3816315,33.3567307 44.2718362,33.402463 C44.161852,33.4480063 44.0426079,33.4706835 43.913726,33.4706835 L43.913726,33.4706835 Z" id="Fill-27" fill="#143057"></path>
        </g>
    </g>
</svg>
